Newaita/actions/24/format-border-set-right.svg

<svg height="24" viewBox="0 0 24 24" width="24" xmlns="http://www.w3.org/2000/svg"><g fill="#424242"><path d="m1.984375 20.03125v-15.875c0-1.09375.890625-1.984375 1.984375-1.984375h15.875c1.097656 0 1.988281.890625 1.988281 1.984375v15.875c0 1.097656-.890625 1.988281-1.988281 1.988281h-15.875c-1.09375 0-1.984375-.890625-1.984375-1.988281zm0 0" fill-opacity=".392157"/><path d="m11.410156 22.019531v-19.847656h.992188v19.847656zm0 0"/><path d="m1.984375 11.542969h19.847656v1.046875h-19.847656zm0 0"/></g><path d="m19.84375 22.019531c1.101562 0 1.988281-.886719 1.988281-1.988281v-15.875c0-1.097656-.886719-1.984375-1.988281-1.984375zm0 0" fill="#7e57c2"/></svg>

<svg xmlns="http://www.w3.org/2000/svg" xmlns:xlink="http://www.w3.org/1999/xlink" width="24px" height="24px" viewBox="0 0 24 24" version="1.1">
<g id="surface1">
<path style=" stroke:none;fill-rule:nonzero;fill:rgb(25.882354%,25.882354%,25.882354%);fill-opacity:0.392157;" d="M 1.984375 20.03125 L 1.984375 4.15625 C 1.984375 3.0625 2.875 2.171875 3.96875 2.171875 L 19.84375 2.171875 C 20.941406 2.171875 21.832031 3.0625 21.832031 4.15625 L 21.832031 20.03125 C 21.832031 21.128906 20.941406 22.019531 19.84375 22.019531 L 3.96875 22.019531 C 2.875 22.019531 1.984375 21.128906 1.984375 20.03125 Z M 1.984375 20.03125 "/>
     <defs>
  <style id="current-color-scheme" type="text/css">
   .ColorScheme-Text { color:#424242; } .ColorScheme-Highlight { color:#eeeeee; }
  </style>
 </defs>
<path style="fill:currentColor" class="ColorScheme-Text" d="M 11.410156 22.019531 L 11.410156 2.171875 L 12.402344 2.171875 L 12.402344 22.019531 Z M 11.410156 22.019531 "/>
     <defs>
  <style id="current-color-scheme" type="text/css">
   .ColorScheme-Text { color:#424242; } .ColorScheme-Highlight { color:#eeeeee; }
  </style>
 </defs>
<path style="fill:currentColor" class="ColorScheme-Text" d="M 1.984375 11.542969 L 21.832031 11.542969 L 21.832031 12.589844 L 1.984375 12.589844 Z M 1.984375 11.542969 "/>
<path style=" stroke:none;fill-rule:nonzero;fill:rgb(49.411765%,34.117648%,76.078433%);fill-opacity:1;" d="M 19.84375 22.019531 C 20.945312 22.019531 21.832031 21.132812 21.832031 20.03125 L 21.832031 4.15625 C 21.832031 3.058594 20.945312 2.171875 19.84375 2.171875 Z M 19.84375 22.019531 "/>
</g>
</svg>
